svgs/1F596-1F3FE.svg

<svg xmlns="http://www.w3.org/2000/svg" xmlns:xlink="http://www.w3.org/1999/xlink" preserveAspectRatio="none" viewBox="0 0 72 72"><defs><path id="a" fill="#E49F49" d="M78.75 14.15q-1.3 1.3-1.8 3.1-.95 3.8-2.3 11.8Q72.7 40.3 71.85 50q2.25-7.9 4.3-19.25 1.65-9.1 2.6-16.6z"/><path id="b" fill="#AD6F43" d="M93 24.35q1.65-11.35-5-13.4-5.85-1.8-9.25 3.2-.95 7.65-2.55 16.6-2.05 11.4-4.3 19.25 0 .1-.3 4l-.95-.25h.1L71.9 50q.8-9.7 2.75-20.95 1.35-7.95 2.3-11.8.5-1.8 1.8-3.1l.4-4.05q.3-4.6-2.5-7.4Q73.9-.1 69.6.4q-6.35.75-8.55 13-3.35 23.4-6.75 37.9-1.75 2.65-4.15 1.9l-2.1-1.3q-5.25-10.6-8.6-20.6-2.7-9-3.6-11.5-1.75-4.95-4.85-7.3-2.9-2.25-5.6-1.3-3.05 1-4.4 3.65-1.2 2.4-.7 5.3.25 1.55 1.75 7.05 1.8 1.95 2.8 5.65.45 1.6 2.45 7.3 1.988 6.31 3.1 13.15-3.808-9.38-8.35-26.1-2.5-2.65-6.9-1.4-2.8.8-3.75 5-.8 3.65.05 6.75.15.6 2.65 10.7 2.3 9.4 4.15 15.9.3 8.8.65 12.25.2 2 1.45 10.65 2.15 14.8 5.65 22.35 3.5 7.5 9.7 10.9 11.75 6.25 23.45 7.2 14.15 1.15 24.6-6.05 2.05-1.45 5-4.5 3.2-3.45 4.7-4.95.25-.2 4.1-7.45 3.95-7.4 4.45-8.05 4.55-5.55 8.85-8.95 2.4-1.85 5.5-4.9 5.4-4.65 6.15-8.55.7-3.65-3-5.1-4.95-1.8-9.5-1.4-4.7.45-6.95 3.1-1 1.15-4.1 5.8-2.25 3.35-6.25 6.9-5.3 1.6-6.95-2.8-.5-1.4-.55-3.2v-1.55q.15-4.05 3.1-21.4.6-2.9 4.7-30.1M32.2 57.3h.05q-.65.45-1.7.85l.55-.35-.65-4.4q1.203 2.855 1.75 3.9z"/><path id="c" fill="#E49F49" d="M24.85 32.85Q23.8 29 22.05 27.2q4.45 16.5 8.4 26.2-1.15-6.9-3.15-13.25-2-5.7-2.45-7.3z"/><path id="d" fill="#7A4C32" d="M22.7 27.45q-1.25-1.15-.9 2.5l9.2 30.2 1.2.25q1.4-.05 2.1-1.4Q34 57.7 24 29.35q-.7-1.3-1.3-1.9z"/><path id="e" fill="#7A4C32" d="M78.85 14.55q-.4-.8-1.45.8-.6 1.45-4.4 21.1-1.9 9.85-3.7 19.4l.8.8q1.05.65 2.6 0 .5-2.2 6.35-40.95 0-.7-.2-1.15z"/><path id="f" fill="#7A4C32" d="M85.2 75.6q.1-2.5.45-4.2-5.4.1-9.15.75-3 .5-6.1 1.55-6.45 2.15-11.35 9.4-3.1 4.65-5.15 9.95-1.8 4.75-1.15 5.3 1.4 1.05 3.7-3.55 4-7.95 5.65-10.3 3-4.25 8.65-6.85 6.8-3.1 14.45-2.05z"/></defs><use transform="scale(.5625)" xlink:href="#a"/><use transform="scale(.5625)" xlink:href="#b"/><use transform="scale(.5625)" xlink:href="#c"/><use transform="scale(.5625)" xlink:href="#d"/><use transform="scale(.5625)" xlink:href="#e"/><use transform="scale(.5625)" xlink:href="#f"/></svg>

<svg xmlns="http://www.w3.org/2000/svg" version="1.1" xmlns:xlink="http://www.w3.org/1999/xlink" preserveAspectRatio="none" x="0px" y="0px" width="72px" height="72px" viewBox="0 0 72 72">
<defs>
<g id="Layer0_0_MEMBER_0_MEMBER_0_MEMBER_0_FILL">
<path fill="#E49F49" stroke="none" d="
M 78.75 14.15
Q 77.45 15.45 76.95 17.25 76 21.05 74.65 29.05 72.7 40.3 71.85 50 74.1 42.1 76.15 30.75 77.8 21.65 78.75 14.15 Z"/>
</g>

<g id="Layer0_0_MEMBER_0_MEMBER_0_MEMBER_1_FILL">
<path fill="#AD6F43" stroke="none" d="
M 93 24.35
Q 94.65 13 88 10.95 82.15 9.15 78.75 14.15 77.8 21.8 76.2 30.75 74.15 42.15 71.9 50 71.9 50.1 71.6 54
L 70.65 53.75 70.75 53.75 71.9 50
Q 72.7 40.3 74.65 29.05 76 21.1 76.95 17.25 77.45 15.45 78.75 14.15
L 79.15 10.1
Q 79.45 5.5 76.65 2.7 73.9 -0.1 69.6 0.4 63.25 1.15 61.05 13.4 57.7 36.8 54.3 51.3 52.55 53.95 50.15 53.2
L 48.05 51.9
Q 42.8 41.3 39.45 31.3 36.75 22.3 35.85 19.8 34.1 14.85 31 12.5 28.1 10.25 25.4 11.2 22.35 12.2 21 14.85 19.8 17.25 20.3 20.15 20.55 21.7 22.05 27.2 23.85 29.15 24.85 32.85 25.3 34.45 27.3 40.15 29.2876953125 46.4609375 30.4 53.3 26.5916015625 43.919140625 22.05 27.2 19.55 24.55 15.15 25.8 12.35 26.6 11.4 30.8 10.6 34.45 11.45 37.55 11.6 38.15 14.1 48.25 16.4 57.65 18.25 64.15 18.55 72.95 18.9 76.4 19.1 78.4 20.35 87.05 22.5 101.85 26 109.4 29.5 116.9 35.7 120.3 47.45 126.55 59.15 127.5 73.3 128.65 83.75 121.45 85.8 120 88.75 116.95 91.95 113.5 93.45 112 93.7 111.8 97.55 104.55 101.5 97.15 102 96.5 106.55 90.95 110.85 87.55 113.25 85.7 116.35 82.65 121.75 78 122.5 74.1 123.2 70.45 119.5 69 114.55 67.2 110 67.6 105.3 68.05 103.05 70.7 102.05 71.85 98.95 76.5 96.7 79.85 92.7 83.4 87.4 85 85.75 80.6 85.25 79.2 85.2 77.4
L 85.2 75.85
Q 85.35 71.8 88.3 54.45 88.9 51.55 93 24.35
M 32.2 57.3
L 32.25 57.3
Q 31.6 57.75 30.55 58.15
L 31.1 57.8 30.45 53.4
Q 31.6525390625 56.2548828125 32.2 57.3 Z"/>
</g>

<g id="Layer0_0_MEMBER_0_MEMBER_0_MEMBER_2_FILL">
<path fill="#E49F49" stroke="none" d="
M 24.85 32.85
Q 23.8 29 22.05 27.2 26.5 43.7 30.45 53.4 29.3 46.5 27.3 40.15 25.3 34.45 24.85 32.85 Z"/>
</g>

<g id="Layer0_0_MEMBER_1_FILL">
<path fill="#7A4C32" stroke="none" d="
M 22.7 27.45
Q 21.45 26.3 21.8 29.95
L 31 60.15 32.2 60.4
Q 33.6 60.35 34.3 59 34 57.7 24 29.35 23.3 28.05 22.7 27.45 Z"/>
</g>

<g id="Layer0_0_MEMBER_2_FILL">
<path fill="#7A4C32" stroke="none" d="
M 78.85 14.55
Q 78.45 13.75 77.4 15.35 76.8 16.8 73 36.45 71.1 46.3 69.3 55.85
L 70.1 56.65
Q 71.15 57.3 72.7 56.65 73.2 54.45 79.05 15.7 79.05 15 78.85 14.55 Z"/>
</g>

<g id="Layer0_1_MEMBER_0_FILL">
<path fill="#7A4C32" stroke="none" d="
M 85.2 75.6
Q 85.3 73.1 85.65 71.4 80.25 71.5 76.5 72.15 73.5 72.65 70.4 73.7 63.95 75.85 59.05 83.1 55.95 87.75 53.9 93.05 52.1 97.8 52.75 98.35 54.15 99.4 56.45 94.8 60.45 86.85 62.1 84.5 65.1 80.25 70.75 77.65 77.55 74.55 85.2 75.6 Z"/>
</g>
</defs>

<g id="Layer_1">
<g transform="matrix( 0.5625, 0, 0, 0.5625, 0,0) ">
<use xlink:href="#Layer0_0_MEMBER_0_MEMBER_0_MEMBER_0_FILL"/>
</g>

<g transform="matrix( 0.5625, 0, 0, 0.5625, 0,0) ">
<use xlink:href="#Layer0_0_MEMBER_0_MEMBER_0_MEMBER_1_FILL"/>
</g>

<g transform="matrix( 0.5625, 0, 0, 0.5625, 0,0) ">
<use xlink:href="#Layer0_0_MEMBER_0_MEMBER_0_MEMBER_2_FILL"/>
</g>

<g transform="matrix( 0.5625, 0, 0, 0.5625, 0,0) ">
<use xlink:href="#Layer0_0_MEMBER_1_FILL"/>
</g>

<g transform="matrix( 0.5625, 0, 0, 0.5625, 0,0) ">
<use xlink:href="#Layer0_0_MEMBER_2_FILL"/>
</g>

<g transform="matrix( 0.5625, 0, 0, 0.5625, 0,0) ">
<use xlink:href="#Layer0_1_MEMBER_0_FILL"/>
</g>
</g>
</svg>
